X: 163
T: Elenska Racenica
B: incoming
M:7/16
L:1/16
Q: 1/4=100
K:Am clef=G
V:1 
c z de ede|c2ce B2e| c2ce B2e|c2BA A3|
V:2 
C4 B,3|C4 D3| E4 D3| C4 C3|
V:3 
x7|x7|x7|x7|
V:4 
[A,Ace]2z2 [E,GBe]2z| [A,Ace]2z2 [E,GBe]2z| [A,Ace]2z2 [E,GBe]2z|[A,Ace]2[A,Ace]z [A,Ace]3|
W: Transcribed by Birgitt Karlson
W: http://www-linux.gsi.de/~karlson/index_e.htm
% abcbook-tune_id 63cb082fb94d325cb90c3a48
% abcbook-tune_composer_id 
% abcbook-boost 0
% abcbook-difficulty 0
% abcbook-tags balkan dances
% abcbook-tablature 
% abcbook-transpose 
% abcbook-tuning 
% abcbook-lastupdated 1674250287865
% abcbook-soundfonts 
% abcbook-repeats 1
%%staves [ 1 (2 3) 4]

